X: 12561
T: Farewell To Milltown
R: reel
M: 4/4
K: Gdorian
|:DGGF G2 GA|BdcA GFDE|F2 CF DFCF|DF (3FDF DFCF|
DGGF G2 GA|BdcA GFDE|F2 cF dFcF|AdcA G2 GF:|
|:dggf g2 ga|b2 ag fcde|f2 eg fc c2|fcgc acge|
dggf g2 ga|b2 ga fcde|f2 eg fc c2|GBAF G2 Bc:|

